public/files/perm/idevices/base/az-quiz-game/export/exequextrerrors.svg

<svg fill="none" height="24" viewBox="0 0 24 24" width="24" xmlns="http://www.w3.org/2000/svg" xmlns:xlink="http://www.w3.org/1999/xlink"><clipPath id="a"><path d="m0 0h24v24h-24z"/></clipPath><g clip-path="url(#a)"><path d="m12 0c-6.624 0-12 5.376-12 12s5.376 12 12 12 12-5.376 12-12-5.376-12-12-12zm4.236 14.964c.348.348.348.924 0 1.272-.18.18-.408.264-.636.264s-.456-.084-.636-.264l-2.964-2.964-2.964 2.964c-.18.18-.408.264-.636.264s-.456-.084-.636-.264c-.348-.348-.348-.924 0-1.272l2.964-2.964-2.964-2.964c-.348-.348-.348-.924 0-1.272s.924-.348 1.272 0l2.964 2.964 2.964-2.964c.348-.348.924-.348 1.272 0s.348.924 0 1.272l-2.964 2.964z" fill="#f46f3e"/></g></svg>

<svg width="24" height="24" viewBox="0 0 24 24" fill="none" xmlns="http://www.w3.org/2000/svg">
<g clip-path="url(#clip0_290_2745)">
<path d="M12 0C5.376 0 0 5.376 0 12C0 18.624 5.376 24 12 24C18.624 24 24 18.624 24 12C24 5.376 18.624 0 12 0ZM16.236 14.964C16.584 15.312 16.584 15.888 16.236 16.236C16.056 16.416 15.828 16.5 15.6 16.5C15.372 16.5 15.144 16.416 14.964 16.236L12 13.272L9.036 16.236C8.856 16.416 8.628 16.5 8.4 16.5C8.172 16.5 7.944 16.416 7.764 16.236C7.416 15.888 7.416 15.312 7.764 14.964L10.728 12L7.764 9.036C7.416 8.688 7.416 8.112 7.764 7.764C8.112 7.416 8.688 7.416 9.036 7.764L12 10.728L14.964 7.764C15.312 7.416 15.888 7.416 16.236 7.764C16.584 8.112 16.584 8.688 16.236 9.036L13.272 12L16.236 14.964Z" fill="#F46F3E"/>
</g>
<defs>
<clipPath id="clip0_290_2745">
<rect width="24" height="24" fill="white"/>
</clipPath>
</defs>
</svg>
